content/sets-and-functions/images/union.svg

<svg height="112.77pt" viewBox="0 0 142.73 112.77" width="142.73pt" xmlns="http://www.w3.org/2000/svg" xmlns:xlink="http://www.w3.org/1999/xlink"><symbol id="a" overflow="visible"><path d="m11.09375-16.921875-8.953125 14.234375c-.875 1.34375-1.296875 1.734375-2.109375 1.921875l-.484375.125v.71875c2.203125-.078125 2.203125-.078125 2.6875-.078125.453125 0 .5 0 2.5625.078125v-.671875l-1.25-.078125c-.375-.03125-.734375-.234375-.734375-.453125 0-.1875.15625-.53125.625-1.328125l2.4375-4.1875h5.90625l.609375 4.5v.078125c0 .015625.015625.09375.046875.21875.015625.1875.046875.421875.046875.53125 0 .375-.359375.59375-1.03125.640625l-1.0625.078125v.671875c2.453125-.078125 2.453125-.078125 2.921875-.078125.484375 0 .484375 0 2.9375.078125v-.671875l-.625-.078125c-1.125-.171875-1.15625-.171875-1.34375-1.25l-2.09375-15zm-.3125 2.5.875 6.90625h-5.171875zm0 0"/></symbol><symbol id="b" overflow="visible"><path d="m2.328125-15.9375 1.265625.046875c.578125.03125.84375.21875.84375.65625 0 .328125-.09375 1.09375-.21875 1.8125l-2.078125 12.109375c-.09375.421875-.390625.59375-1.390625.765625l-.125.625.890625-.03125c.640625-.046875 1-.046875 1.296875-.046875.265625 0 .890625.03125 1.5.046875l.890625.03125.484375.015625c.453125.03125.765625.046875.953125.046875 1.15625 0 2.3125-.328125 3.4375-1 1.890625-1.125 2.953125-2.765625 2.953125-4.59375 0-1.03125-.328125-1.8125-.984375-2.34375-.625-.5-1.34375-.71875-3-.96875 1.375-.46875 1.96875-.765625 2.71875-1.4375 1.09375-.9375 1.65625-2.0625 1.65625-3.28125 0-1.96875-1.390625-3.125-3.796875-3.125-.046875 0-.28125 0-.65625.03125l-1.5.015625c-.296875.03125-1.15625.03125-1.4375.03125-.46875 0-1.203125-.03125-2.390625-.046875l-1.234375-.03125zm2.875 7.78125h2.046875c2.46875 0 3.671875 1 3.671875 3.09375 0 2.46875-1.75 4.25-4.15625 4.25-.484375 0-1.171875-.03125-1.96875-.09375-.140625-.03125-.421875-.046875-.8125-.078125zm1.328125-7.4375c.265625 0 .3125-.03125.8125-.046875.5-.0625.8125-.078125 1.109375-.078125 1.9375 0 2.90625.859375 2.90625 2.65625 0 2.53125-1.78125 4.03125-4.765625 4.03125h-1.234375zm0 0"/></symbol><symbol id="c" overflow="visible"><path d="m15.28125-14.0625c0-.453125 0-.890625-.5-.890625s-.5.4375-.5.890625v9.0625c0 3.75-4.078125 4.546875-5.953125 4.546875-1.125 0-2.703125-.21875-4.03125-1.078125-1.921875-1.21875-1.921875-2.828125-1.921875-3.5v-9.03125c0-.453125 0-.890625-.5-.890625s-.5.4375-.5.890625v9.15625c0 3.8125 3.828125 5.453125 6.953125 5.453125 3.25 0 6.953125-1.75 6.953125-5.421875zm0 0"/></symbol><symbol id="d" overflow="visible"><path d="m7.390625-11.28125-5.96875 9.484375c-.578125.90625-.859375 1.15625-1.40625 1.28125l-.3125.078125v.484375c1.46875-.046875 1.46875-.046875 1.78125-.046875s.34375 0 1.71875.046875v-.453125l-.828125-.046875c-.265625-.015625-.5-.15625-.5-.296875 0-.125.109375-.359375.40625-.875l1.640625-2.8125h3.9375l.390625 3.015625v.046875c0 .015625.015625.0625.03125.140625.015625.125.03125.296875.03125.359375 0 .25-.234375.390625-.6875.421875l-.703125.046875v.453125c1.640625-.046875 1.640625-.046875 1.953125-.046875.328125 0 .328125 0 1.953125.046875v-.453125l-.40625-.046875c-.765625-.109375-.78125-.109375-.90625-.828125l-1.390625-10zm-.203125 1.671875.59375 4.59375h-3.46875zm0 0"/></symbol><symbol id="e" overflow="visible"><path d="m1.546875-10.625.859375.03125c.375.015625.546875.140625.546875.4375 0 .21875-.0625.734375-.140625 1.21875l-1.390625 8.0625c-.0625.28125-.25.390625-.921875.5l-.078125.421875.59375-.015625c.421875-.03125.671875-.03125.859375-.03125.171875 0 .59375.015625 1 .03125l.59375.015625.328125.015625c.296875.015625.5.03125.640625.03125.765625 0 1.53125-.21875 2.28125-.671875 1.265625-.75 1.96875-1.84375 1.96875-3.046875 0-.6875-.21875-1.21875-.65625-1.578125-.421875-.328125-.890625-.484375-2-.640625.90625-.3125 1.3125-.515625 1.8125-.953125.734375-.625 1.09375-1.375 1.09375-2.1875 0-1.3125-.921875-2.09375-2.515625-2.09375-.03125 0-.203125 0-.4375.015625l-1.015625.015625c-.1875.015625-.765625.015625-.953125.015625-.296875 0-.796875-.015625-1.578125-.03125l-.84375-.015625zm1.921875 5.1875h1.359375c1.65625 0 2.453125.671875 2.453125 2.0625 0 1.640625-1.171875 2.828125-2.765625 2.828125-.328125 0-.78125-.015625-1.3125-.0625-.09375-.015625-.296875-.03125-.546875-.046875zm.890625-4.96875c.171875 0 .203125-.015625.53125-.03125.34375-.03125.546875-.046875.734375-.046875 1.296875 0 1.9375.578125 1.9375 1.78125 0 1.671875-1.171875 2.6875-3.15625 2.6875h-.84375zm0 0"/></symbol><path d="m85.328125 46.328125c0-21.167969-17.160156-38.324219-38.324219-38.324219-21.167968 0-38.324218 17.15625-38.324218 38.324219 0 21.164063 17.15625 38.324219 38.324218 38.324219 21.164063 0 38.324219-17.160156 38.324219-38.324219" fill="#525294"/><path d="m135.148438 46.328125c0-21.167969-17.15625-38.324219-38.324219-38.324219-21.164063 0-38.324219 17.15625-38.324219 38.324219 0 21.164063 17.160156 38.324219 38.324219 38.324219 21.167969 0 38.324219-17.160156 38.324219-38.324219" fill="#525294"/><path d="m853.28125 664.41875c0 211.679688-171.601562 383.242188-383.242188 383.242188-211.679687 0-383.242187-171.5625-383.242187-383.242188 0-211.640625 171.5625-383.242187 383.242187-383.242187 211.640626 0 383.242188 171.601562 383.242188 383.242187zm0 0" style="fill:none;stroke-width:4.99887;stroke-linecap:round;stroke-linejoin:round;stroke:#000;stroke-miterlimit:10" transform="matrix(.1 0 0 -.1 0 112.77)"/><path d="m1351.484375 664.41875c0 211.679688-171.5625 383.242188-383.242187 383.242188-211.640626 0-383.242188-171.5625-383.242188-383.242188 0-211.640625 171.601562-383.242187 383.242188-383.242187 211.679687 0 383.242187 171.601562 383.242187 383.242187zm0 0" style="fill:none;stroke-width:4.99887;stroke-linecap:round;stroke-linejoin:round;stroke:#000;stroke-miterlimit:10" transform="matrix(.1 0 0 -.1 0 112.77)"/><g fill="#191970"><use x="42.6" xlink:href="#a" y="106.40984"/><use x="65.2801" xlink:href="#c" y="106.40984"/><use x="87.6" xlink:href="#b" y="106.40984"/></g><use x="6.48008" xlink:href="#d" y="16.6501"/><use x="127.44008" xlink:href="#e" y="16.529787"/></svg>

<?xml version="1.0" encoding="UTF-8"?>
<svg xmlns="http://www.w3.org/2000/svg" xmlns:xlink="http://www.w3.org/1999/xlink" width="142.73pt" height="112.77pt" viewBox="0 0 142.73 112.77" version="1.1">
<defs>
<g>
<symbol overflow="visible" id="glyph0-0">
<path style="stroke:none;" d=""/>
</symbol>
<symbol overflow="visible" id="glyph0-1">
<path style="stroke:none;" d="M 11.09375 -16.921875 L 2.140625 -2.6875 C 1.265625 -1.34375 0.84375 -0.953125 0.03125 -0.765625 L -0.453125 -0.640625 L -0.453125 0.078125 C 1.75 0 1.75 0 2.234375 0 C 2.6875 0 2.734375 0 4.796875 0.078125 L 4.796875 -0.59375 L 3.546875 -0.671875 C 3.171875 -0.703125 2.8125 -0.90625 2.8125 -1.125 C 2.8125 -1.3125 2.96875 -1.65625 3.4375 -2.453125 L 5.875 -6.640625 L 11.78125 -6.640625 L 12.390625 -2.140625 L 12.390625 -2.0625 C 12.390625 -2.046875 12.40625 -1.96875 12.4375 -1.84375 C 12.453125 -1.65625 12.484375 -1.421875 12.484375 -1.3125 C 12.484375 -0.9375 12.125 -0.71875 11.453125 -0.671875 L 10.390625 -0.59375 L 10.390625 0.078125 C 12.84375 0 12.84375 0 13.3125 0 C 13.796875 0 13.796875 0 16.25 0.078125 L 16.25 -0.59375 L 15.625 -0.671875 C 14.5 -0.84375 14.46875 -0.84375 14.28125 -1.921875 L 12.1875 -16.921875 Z M 10.78125 -14.421875 L 11.65625 -7.515625 L 6.484375 -7.515625 Z M 10.78125 -14.421875 "/>
</symbol>
<symbol overflow="visible" id="glyph0-2">
<path style="stroke:none;" d="M 2.328125 -15.9375 L 3.59375 -15.890625 C 4.171875 -15.859375 4.4375 -15.671875 4.4375 -15.234375 C 4.4375 -14.90625 4.34375 -14.140625 4.21875 -13.421875 L 2.140625 -1.3125 C 2.046875 -0.890625 1.75 -0.71875 0.75 -0.546875 L 0.625 0.078125 L 1.515625 0.046875 C 2.15625 0 2.515625 0 2.8125 0 C 3.078125 0 3.703125 0.03125 4.3125 0.046875 L 5.203125 0.078125 L 5.6875 0.09375 C 6.140625 0.125 6.453125 0.140625 6.640625 0.140625 C 7.796875 0.140625 8.953125 -0.1875 10.078125 -0.859375 C 11.96875 -1.984375 13.03125 -3.625 13.03125 -5.453125 C 13.03125 -6.484375 12.703125 -7.265625 12.046875 -7.796875 C 11.421875 -8.296875 10.703125 -8.515625 9.046875 -8.765625 C 10.421875 -9.234375 11.015625 -9.53125 11.765625 -10.203125 C 12.859375 -11.140625 13.421875 -12.265625 13.421875 -13.484375 C 13.421875 -15.453125 12.03125 -16.609375 9.625 -16.609375 C 9.578125 -16.609375 9.34375 -16.609375 8.96875 -16.578125 L 7.46875 -16.5625 C 7.171875 -16.53125 6.3125 -16.53125 6.03125 -16.53125 C 5.5625 -16.53125 4.828125 -16.5625 3.640625 -16.578125 L 2.40625 -16.609375 Z M 5.203125 -8.15625 L 7.25 -8.15625 C 9.71875 -8.15625 10.921875 -7.15625 10.921875 -5.0625 C 10.921875 -2.59375 9.171875 -0.8125 6.765625 -0.8125 C 6.28125 -0.8125 5.59375 -0.84375 4.796875 -0.90625 C 4.65625 -0.9375 4.375 -0.953125 3.984375 -0.984375 Z M 6.53125 -15.59375 C 6.796875 -15.59375 6.84375 -15.625 7.34375 -15.640625 C 7.84375 -15.703125 8.15625 -15.71875 8.453125 -15.71875 C 10.390625 -15.71875 11.359375 -14.859375 11.359375 -13.0625 C 11.359375 -10.53125 9.578125 -9.03125 6.59375 -9.03125 L 5.359375 -9.03125 Z M 6.53125 -15.59375 "/>
</symbol>
<symbol overflow="visible" id="glyph1-0">
<path style="stroke:none;" d=""/>
</symbol>
<symbol overflow="visible" id="glyph1-1">
<path style="stroke:none;" d="M 15.28125 -14.0625 C 15.28125 -14.515625 15.28125 -14.953125 14.78125 -14.953125 C 14.28125 -14.953125 14.28125 -14.515625 14.28125 -14.0625 L 14.28125 -5 C 14.28125 -1.25 10.203125 -0.453125 8.328125 -0.453125 C 7.203125 -0.453125 5.625 -0.671875 4.296875 -1.53125 C 2.375 -2.75 2.375 -4.359375 2.375 -5.03125 L 2.375 -14.0625 C 2.375 -14.515625 2.375 -14.953125 1.875 -14.953125 C 1.375 -14.953125 1.375 -14.515625 1.375 -14.0625 L 1.375 -4.90625 C 1.375 -1.09375 5.203125 0.546875 8.328125 0.546875 C 11.578125 0.546875 15.28125 -1.203125 15.28125 -4.875 Z M 15.28125 -14.0625 "/>
</symbol>
<symbol overflow="visible" id="glyph2-0">
<path style="stroke:none;" d=""/>
</symbol>
<symbol overflow="visible" id="glyph2-1">
<path style="stroke:none;" d="M 7.390625 -11.28125 L 1.421875 -1.796875 C 0.84375 -0.890625 0.5625 -0.640625 0.015625 -0.515625 L -0.296875 -0.4375 L -0.296875 0.046875 C 1.171875 0 1.171875 0 1.484375 0 C 1.796875 0 1.828125 0 3.203125 0.046875 L 3.203125 -0.40625 L 2.375 -0.453125 C 2.109375 -0.46875 1.875 -0.609375 1.875 -0.75 C 1.875 -0.875 1.984375 -1.109375 2.28125 -1.625 L 3.921875 -4.4375 L 7.859375 -4.4375 L 8.25 -1.421875 L 8.25 -1.375 C 8.25 -1.359375 8.265625 -1.3125 8.28125 -1.234375 C 8.296875 -1.109375 8.3125 -0.9375 8.3125 -0.875 C 8.3125 -0.625 8.078125 -0.484375 7.625 -0.453125 L 6.921875 -0.40625 L 6.921875 0.046875 C 8.5625 0 8.5625 0 8.875 0 C 9.203125 0 9.203125 0 10.828125 0.046875 L 10.828125 -0.40625 L 10.421875 -0.453125 C 9.65625 -0.5625 9.640625 -0.5625 9.515625 -1.28125 L 8.125 -11.28125 Z M 7.1875 -9.609375 L 7.78125 -5.015625 L 4.3125 -5.015625 Z M 7.1875 -9.609375 "/>
</symbol>
<symbol overflow="visible" id="glyph2-2">
<path style="stroke:none;" d="M 1.546875 -10.625 L 2.40625 -10.59375 C 2.78125 -10.578125 2.953125 -10.453125 2.953125 -10.15625 C 2.953125 -9.9375 2.890625 -9.421875 2.8125 -8.9375 L 1.421875 -0.875 C 1.359375 -0.59375 1.171875 -0.484375 0.5 -0.375 L 0.421875 0.046875 L 1.015625 0.03125 C 1.4375 0 1.6875 0 1.875 0 C 2.046875 0 2.46875 0.015625 2.875 0.03125 L 3.46875 0.046875 L 3.796875 0.0625 C 4.09375 0.078125 4.296875 0.09375 4.4375 0.09375 C 5.203125 0.09375 5.96875 -0.125 6.71875 -0.578125 C 7.984375 -1.328125 8.6875 -2.421875 8.6875 -3.625 C 8.6875 -4.3125 8.46875 -4.84375 8.03125 -5.203125 C 7.609375 -5.53125 7.140625 -5.6875 6.03125 -5.84375 C 6.9375 -6.15625 7.34375 -6.359375 7.84375 -6.796875 C 8.578125 -7.421875 8.9375 -8.171875 8.9375 -8.984375 C 8.9375 -10.296875 8.015625 -11.078125 6.421875 -11.078125 C 6.390625 -11.078125 6.21875 -11.078125 5.984375 -11.0625 L 4.96875 -11.046875 C 4.78125 -11.03125 4.203125 -11.03125 4.015625 -11.03125 C 3.71875 -11.03125 3.21875 -11.046875 2.4375 -11.0625 L 1.59375 -11.078125 Z M 3.46875 -5.4375 L 4.828125 -5.4375 C 6.484375 -5.4375 7.28125 -4.765625 7.28125 -3.375 C 7.28125 -1.734375 6.109375 -0.546875 4.515625 -0.546875 C 4.1875 -0.546875 3.734375 -0.5625 3.203125 -0.609375 C 3.109375 -0.625 2.90625 -0.640625 2.65625 -0.65625 Z M 4.359375 -10.40625 C 4.53125 -10.40625 4.5625 -10.421875 4.890625 -10.4375 C 5.234375 -10.46875 5.4375 -10.484375 5.625 -10.484375 C 6.921875 -10.484375 7.5625 -9.90625 7.5625 -8.703125 C 7.5625 -7.03125 6.390625 -6.015625 4.40625 -6.015625 L 3.5625 -6.015625 Z M 4.359375 -10.40625 "/>
</symbol>
</g>
</defs>
<g id="surface1">
<path style=" stroke:none;fill-rule:nonzero;fill:rgb(32.347107%,32.347107%,58.006287%);fill-opacity:1;" d="M 85.328125 46.328125 C 85.328125 25.160156 68.167969 8.003906 47.003906 8.003906 C 25.835938 8.003906 8.679688 25.160156 8.679688 46.328125 C 8.679688 67.492188 25.835938 84.652344 47.003906 84.652344 C 68.167969 84.652344 85.328125 67.492188 85.328125 46.328125 "/>
<path style=" stroke:none;fill-rule:nonzero;fill:rgb(32.347107%,32.347107%,58.006287%);fill-opacity:1;" d="M 135.148438 46.328125 C 135.148438 25.160156 117.992188 8.003906 96.824219 8.003906 C 75.660156 8.003906 58.5 25.160156 58.5 46.328125 C 58.5 67.492188 75.660156 84.652344 96.824219 84.652344 C 117.992188 84.652344 135.148438 67.492188 135.148438 46.328125 "/>
<path style="fill:none;stroke-width:4.99887;stroke-linecap:round;stroke-linejoin:round;stroke:rgb(0%,0%,0%);stroke-opacity:1;stroke-miterlimit:10;" d="M 853.28125 664.41875 C 853.28125 876.098438 681.679688 1047.660938 470.039062 1047.660938 C 258.359375 1047.660938 86.796875 876.098438 86.796875 664.41875 C 86.796875 452.778125 258.359375 281.176563 470.039062 281.176563 C 681.679688 281.176563 853.28125 452.778125 853.28125 664.41875 Z M 853.28125 664.41875 " transform="matrix(0.1,0,0,-0.1,0,112.77)"/>
<path style="fill:none;stroke-width:4.99887;stroke-linecap:round;stroke-linejoin:round;stroke:rgb(0%,0%,0%);stroke-opacity:1;stroke-miterlimit:10;" d="M 1351.484375 664.41875 C 1351.484375 876.098438 1179.921875 1047.660938 968.242188 1047.660938 C 756.601562 1047.660938 585 876.098438 585 664.41875 C 585 452.778125 756.601562 281.176563 968.242188 281.176563 C 1179.921875 281.176563 1351.484375 452.778125 1351.484375 664.41875 Z M 1351.484375 664.41875 " transform="matrix(0.1,0,0,-0.1,0,112.77)"/>
<g style="fill:rgb(9.812927%,9.812927%,43.920898%);fill-opacity:1;">
  <use xlink:href="#glyph0-1" x="42.6" y="106.40984"/>
</g>
<g style="fill:rgb(9.812927%,9.812927%,43.920898%);fill-opacity:1;">
  <use xlink:href="#glyph1-1" x="65.2801" y="106.40984"/>
</g>
<g style="fill:rgb(9.812927%,9.812927%,43.920898%);fill-opacity:1;">
  <use xlink:href="#glyph0-2" x="87.6" y="106.40984"/>
</g>
<g style="fill:rgb(0%,0%,0%);fill-opacity:1;">
  <use xlink:href="#glyph2-1" x="6.48008" y="16.6501"/>
</g>
<g style="fill:rgb(0%,0%,0%);fill-opacity:1;">
  <use xlink:href="#glyph2-2" x="127.44008" y="16.529787"/>
</g>
</g>
</svg>
